!!!OTL: 760. Die Liebe.
!!!ODT: 1830 (um)
!!!ARE: Europa, Mitteleuropa, Deutschland
!!!SCT: B0760
!!!TXL: @@DE
!!!YEM: Copyright 1995, estate of Helmut Schaffrath.
**kern	**text
*ICvox	*
*Ivox	*
*clefG2	*
*M4/4	*
*met(c)	*
*k[f#]	*
*G:	*
=1	=1
!LO:TX:a:t=Ruhig.	!
{4g	Heil-
4g	-ge
8aL	Lie-
8f#J	.
4g	-be,
=2	=2
4b	Himmelsglau-
4b	.
8ccL	.
8aJ	.
4b}	-be,
=3	=3
{4dd	reinen
4cc	.
4b	See-
8aL	-len
8bJ	.
=4	=4
4.cc	nur
8cc	bewußt,
2cc;}	.
=5	=5
{4.cc	A-
8b	-bendſtern
4a	.
4a	aus
=6	=6
4.dd	E-
8cc	-dens
4b	Lau-
4b}	-be,
=7	=7
{4ee	komm',
4dd	er-
4cc	-leuch-
4b	-te
=8	=8
8bL	unſ'-
8aJ	.
8gL	-re
8f#J	.
4g	Bruſt!
4r}	.
==	==
!!!AGN: religioes
!!!GTL: Religioese Lieder
!!!ONB: ESAC (Essen Associative Code) Database: BOEHME
!!!AMT: simple quadruple
!!!AIN: vox
!!!EED: Helmut Schaffrath
!!!EEV: 1.0
!!Mel. um 1830.
!!@@COMMENT:"Gedicht von Johannes D. Falk (in Weimar) um 1817. Komponiſt der Melodie iſt der muſikaliſche Dichter wahrſcheinlich ſelbſt."
!!@@END:
!!!Text: J. D. Falk
!!!URL-scan: https://archive.org/details/BoehmeVtLieder1895/page/n607/mode/2up
!!!ENC: Anna Maria Matuszewska
!!!EEV: 2024/19/07
*-	*-
